client/public/img/game/shared/projectiles/proj_frag.svg

<?xml version="1.0" encoding="UTF-8" standalone="no"?>
<svg
   width="42"
   height="65"
   viewBox="0 0 42 65"
   fill="none"
   version="1.1"
   id="svg6"
   xmlns="http://www.w3.org/2000/svg"
   xmlns:svg="http://www.w3.org/2000/svg">
  <defs
     id="defs6" />
  <path
     d="M16.23 19.043C15.9538 19.043 15.73 19.2668 15.73 19.543V28.1309C15.73 28.407 15.9538 28.6309 16.23 28.6309H21.1337H26.0424C26.3186 28.6309 26.5424 28.407 26.5424 28.1309V19.543C26.5424 19.2668 26.3186 19.043 26.0424 19.043H16.23Z"
     fill="#575946"
     stroke="#191A14"
     stroke-width="4"
     stroke-miterlimit="3.99393"
     id="path1" />
  <path
     d="M21.1362 25.9688C16.2816 25.97 11.6261 27.9012 8.19391 31.3374C4.76168 34.7737 2.83376 39.4337 2.83398 44.2926C2.83374 49.1515 4.76167 53.8114 8.19391 57.2477C11.6261 60.684 16.2815 62.6151 21.1362 62.6164C23.5405 62.6165 25.9212 62.1427 28.1425 61.2219C30.3638 60.3011 32.3821 58.9514 34.0822 57.2498C35.7823 55.5482 37.1309 53.5281 38.0509 51.3049C38.971 49.0817 39.4444 46.6989 39.4443 44.2926C39.4444 41.8862 38.971 39.5033 38.0509 37.2801C37.1309 35.0569 35.7823 33.0369 34.0822 31.3353C32.3822 29.6338 30.3638 28.284 28.1425 27.3632C25.9212 26.4424 23.5405 25.9686 21.1362 25.9688Z"
     fill="#575946"
     id="path2" />
  <path
     d="M39.3784 42.7383H2.89985C2.85986 43.2088 2.83794 43.6823 2.83447 44.1578V44.4274C2.83794 44.9032 2.85989 45.377 2.89992 45.8478H39.3783C39.4203 45.3542 39.4423 44.8584 39.4441 44.3615V44.2238C39.4423 43.7271 39.4203 43.2316 39.3784 42.7383Z"
     fill="#404233"
     id="path3" />
  <path
     d="M27.5688 5.81197C27.5688 6.20433 27.6462 6.59289 27.7964 6.95539C27.9467 7.31789 28.167 7.64724 28.4446 7.92468C28.7223 8.20213 29.0518 8.42223 29.4146 8.57238C29.7773 8.72253 30.1662 8.79972 30.5588 8.79972C30.9515 8.79972 31.3403 8.72253 31.7031 8.57238C32.0659 8.42223 32.3954 8.20213 32.6731 7.92468C32.9507 7.64724 33.171 7.31789 33.3213 6.95539C33.4715 6.59289 33.5488 6.20433 33.5488 5.81197C33.5488 5.4196 33.4715 5.03114 33.3213 4.66865C33.171 4.30615 32.9507 3.97669 32.6731 3.69925C32.3954 3.42181 32.0659 3.2018 31.7031 3.05166C31.3403 2.90151 30.9515 2.82421 30.5588 2.82422C30.1662 2.82421 29.7773 2.90151 29.4146 3.05166C29.0518 3.2018 28.7223 3.42181 28.4446 3.69925C28.167 3.97669 27.9467 4.30615 27.7964 4.66865C27.6462 5.03114 27.5688 5.4196 27.5688 5.81197Z"
     fill="#47443C"
     stroke="#191815"
     stroke-width="4"
     stroke-miterlimit="3.99393"
     id="path4" />
  <path
     d="M25.278 4.68359L26.5423 5.81084L30.5103 5.81084L25.278 12.9432L26.5423 19.0419C26.5423 19.0419 15.4418 19.0419 15.2903 19.0419H7.229L12.338 4.68359L25.278 4.68359Z"
     fill="#4E4735"
     stroke="#1B1913"
     stroke-width="4"
     stroke-miterlimit="3.99393"
     stroke-linecap="square"
     id="path5" />
  <path
     d="M21.1362 25.9688C16.2816 25.97 11.6261 27.9012 8.19391 31.3374C4.76168 34.7737 2.83376 39.4337 2.83398 44.2926C2.83374 49.1515 4.76167 53.8114 8.19391 57.2477C11.6261 60.684 16.2815 62.6151 21.1362 62.6164C23.5405 62.6165 25.9212 62.1427 28.1425 61.2219C30.3638 60.3011 32.3821 58.9514 34.0822 57.2498C35.7823 55.5482 37.1309 53.5281 38.0509 51.3049C38.971 49.0817 39.4444 46.6989 39.4443 44.2926C39.4444 41.8862 38.971 39.5033 38.0509 37.2801C37.1309 35.0569 35.7823 33.0369 34.0822 31.3353C32.3822 29.6338 30.3638 28.284 28.1425 27.3632C25.9212 26.4424 23.5405 25.9686 21.1362 25.9688Z"
     stroke="#191A14"
     stroke-width="4"
     stroke-miterlimit="3.99393"
     id="path6" />
</svg>

<svg xmlns="http://www.w3.org/2000/svg" width="42" height="65" fill="none"><path fill="#575946" stroke="#191A14" stroke-miterlimit="3.994" stroke-width="4" d="M16.23 19.043a.5.5 0 0 0-.5.5v8.588a.5.5 0 0 0 .5.5h9.812a.5.5 0 0 0 .5-.5v-8.588a.5.5 0 0 0-.5-.5z"/><path fill="#575946" d="M21.136 25.969a18.3 18.3 0 0 0-12.942 5.368 18.33 18.33 0 0 0-5.36 12.956 18.33 18.33 0 0 0 5.36 12.955 18.3 18.3 0 0 0 19.948 3.974 18.3 18.3 0 0 0 9.909-9.917 18.335 18.335 0 0 0-9.909-23.942 18.3 18.3 0 0 0-7.006-1.394"/><path fill="#404233" d="M39.378 42.738H2.9q-.06.706-.066 1.42v.27q.006.713.066 1.42h36.478q.063-.742.066-1.486v-.138a18 18 0 0 0-.066-1.486"/><path fill="#47443C" stroke="#191815" stroke-miterlimit="3.994" stroke-width="4" d="M27.569 5.812a2.987 2.987 0 0 0 4.134 2.76 2.99 2.99 0 0 0 1.618-3.903 2.99 2.99 0 0 0-5.752 1.143Z"/><path fill="#4E4735" stroke="#1B1913" stroke-linecap="square" stroke-miterlimit="3.994" stroke-width="4" d="m25.278 4.684 1.264 1.127h3.968l-5.232 7.132 1.264 6.099H7.23l5.109-14.358z"/><path stroke="#191A14" stroke-miterlimit="3.994" stroke-width="4" d="M21.136 25.969a18.3 18.3 0 0 0-12.942 5.368 18.33 18.33 0 0 0-5.36 12.956 18.33 18.33 0 0 0 5.36 12.955 18.3 18.3 0 0 0 19.948 3.974 18.3 18.3 0 0 0 9.909-9.917 18.335 18.335 0 0 0-9.909-23.942 18.3 18.3 0 0 0-7.006-1.394Z"/></svg>
